X: 11181
M: C
L: 1/16
K: C
g2ab c'2e2 g2e2d2c2 | d3e (fe)(dc) A6 G2 | c3c c3c c2G2 c2a2 | ge3 d3e c6 |]
E3G c3G A3G c3G | e3g (fedc) A6 GF | E3G c3G A3G c3G | e3f (ga)(bc') g6 ab |
{c}c'2b2a2g2 a2g2f2e2 | d3e (fe)(dc) A6 G2 | c3c c3c c2G2 c2a2 | ge3 d3e c6 :|


